X:4426
T:Mrs Bullengards Waltz. CJF.139
O:england
M:3/8
L:1/16
Q:50
S: C.J.Fox MS, 1829/33, Beverley,E.Yorks.
R:Waltz
A:East Yorkshire
B:Kidson Coll.Mitchell Lib.M1805
K:Bb
F2|B2B2d2|f4b2|B2B2d2|cBAGF2|B2B2d2|f4b2|\
fgfdec|B4:||:c2|c2f2f2|a4f2|
b2bg=e2|fafac2|c2f2f2|a4f2|=egegc2|f4:||:cd|\
"f"._e2"p".e2 cd|"f"e2"p"e2 cd|"ff"(edede)d|\
e4(de)|f2f2 dB|c2c2 eg|B2B2 cd|B4:||


